X:1
T:Title
%%score 1 2 3 4
L:1/8
Q:1/4=126
M:4/4
K:C
V:1 treble nm="MusicXML Part"
V:2 treble nm="MusicXML Part"
V:3 treble-8 nm="MusicXML Part"
V:4 bass nm="MusicXML Part"
V:1
 A8 | c4 c2 B2 | A6 ^G2 | ^G4 z2 E2 | F2 G2 A3 A | A2 c4 B2 | A4 ^G4 | z2 c2 B2 A2 | G3 G G2 G2 | %9
w: O|ma- gnum my-|ste- ri-|um, et|ad- mi- ra- bi-|le sa- cra-|men- tum,|ut a- ni-|ma- li- a vi-|
 A2 B2 c4- | c2 c2 B2 A2- | A^G G2 A4- | A4 z4 | z8 | z2 c2 c4 | B2 A4 A2 | ^G3 G A4!fine! || %17
w: de- rent Do-|* mi- num na-|* * * tum,|||ia- cen-|tem in prae-|se- pi- o.|
 A4 A2 A2 | A4 A2 A2 | c2 B2 A4 | ^G4 z4 | z8 | z8 | z8 | c6 c2 | c4 c4 | B8 || z8 | z8 | z8 | z8 | %31
w: Be- a- ta|Vir- go, be-|a- ta Vir-|go,||||Do- mi-|num Chri-|stum.|||||
 z8 | z8 |] %33
w: ||
V:2
 E8 | A4 G2 G2 | E6 E2 | E4 z2 ^C2 | D2 E2 F3 F | F2 F3 E E2- | E2 D2 E4 | z2 A2 G2 F2 | %8
w: O|ma- gnum my-|ste- ri-|um, et|ad- mi- ra- bi-|le sa- cra- men-|* * tum,|ut a- ni-|
 E3 E E2 E2 | F2 G2 A4- | A2 G2 F4 | E4 E4 | z2 E2 E2 D2 | C2 C2 F3 F | E2 G2 G4 | G2 E4 E2 | %16
w: ma- li- a vi-|de- rent Do-|* mi- num|na- tum,|ia- cen- tem|in prae- se- pi-|o, ia- cen-|tem in prae-|
 E3 E E4 || C4 D2 E2 | F4 E4- | E8- | E4 z4 | z8 | z8 | z8 | z2 F4 E2 | E4 E4 | E8 || E4 E2 E2 | %28
w: se- pi- o.|Be- a- ta|Vir- go,||||||Do- mi-|num Chri-|stum.|A- ve Ma-|
 A4 G2 C2- | CC E2 D4 | E2 E4 D2 | C4 B,4 | A,8 |] %33
w: ri- a, gra-|* ti- a ple-|na, Do- mi-|nus te-|cum.|
V:3
 c8 | f4 e2 d2 | c6 B2 | B4 z2 A2 | A2 c2 c3 c | d2 cB A2 B2 | c2 A2 B4 | z2 e2 e2 c2 | %8
w: O|ma- gnum my-|ste- ri-|um, et|ad- mi- ra- bi-|le sa- * * cra-|men- * tum,|ut a- ni-|
 c3 c c2 c2 | c2 d2 f4 | f2 e2 d3 c | B4 A2 c2 | c4 B2 A2- | A2 G2 A2 B2 | c2 e2 e4 | d2 c4 c2 | %16
w: ma- li- a vi-|de- rent Do-|mi- num na- *|* tum, ia-|cen- tem in|* prae- se- pi-|o, ia- cen-|tem in prae-|
 B3 B A4 || e4 f2 e2 | d4 c2 c2 | A2 B2 c4 | B2 B4 c2 | d3 d d2 e2- | ee f2 e2 d2 | c3 B/A/ B4 | %24
w: se- pi- o.|Be- a- ta|Vir- go, be-|a- ta Vir-|go, cu- ius|vi- sce- ra me-|* ru- e- runt por-|ta- * * *|
 A2 A4 G2 | G4 A4 | ^G8 || c4 B2 c2- | c2 d2 e2 A2- | AA c4 B2 | c2 c3 c B2- | B2 A3 ^G/^F/ G2 | %32
w: re Do- mi-|num Chri-|stum.|A- ve Ma-|* ri- a, gra-|* ti- a ple-|na, Do- mi- nus|* te- * * *|
 A8 |] %33
w: cum.|
V:4
 A,8 | F,4 C,2 G,2 | A,6 E,2 | E,4 z2 A,,2 | D,2 C,2 F,3 F, | D,2 A,4 G,2 | F,4 E,4 | %7
w: O|ma- gnum my-|ste- ri-|um, et|ad- mi- ra- bi-|le sa- cra-|men- tum,|
 z2 A,,2 E,2 F,2 | C,3 C, C,2 C2 | A,2 G,2 F,4 | F,2 C,2 D,4 | E,4 z2 A,2 | A,4 G,2 F,2- | %13
w: ut a- ni-|ma- li- a vi-|de- rent Do-|mi- num na-|tum, ia-|cen- tem in|
 F,2 E,2 D,3 D, | C,2 C,2 C,4 | G,2 A,4 A,,2 | E,3 E, A,,4 || A,4 D,2 ^C,2 | D,4 A,,2 A,2 | %19
w: * prae- se- pi-|o, ia- cen-|tem in prae-|se- pi- o.|Be- a- ta|Vir- go, be-|
 A,2 ^G,2 A,4 | E,4 E,4 | F,2 G,3 G, G,2 | A,3 A, C2 B,2- | B,2 A,4 ^G,2 | A,2 F,4 C,2 | C,4 A,,4 | %26
w: a- ta Vir-|go, cu-|ius vi- sce- ra|me- ru- e- runt|* por- ta-|re Do- mi-|num Chri-|
 E,8 || A,4 ^G,2 A,2 | F,4 E,2 F,2- | F,F, C,2 G,4 | C,2 C,4 G,,2 | A,,4 E,4 | A,,8 |] %33
w: stum.|A- ve Ma-|ri- a, gra-|* ti- a ple-|na, Do- mi-|nus te-|cum.|

